!!!OTL: Quaker's Courtship
!!!ONM: 23.
**kern
*clefG2
*k[f#]
*G:
*M4/4
*MM60
{4.c
8d
4e
4c
=2
4.d
8e
8e
4.g
=3
2.g
4r
=4
2.c
4r}
=5
{4.c
8d
4e
4c
=6
4.e
8d
8e
4.g
=7
2.g
4r
=8
2.c
4r}
=9||
*MM152
{4g
4g
4g
4d
=10
4e
4e
(4e
4d)}
=11
{4g
8g
8f#
4g
4d
=12
4d
4f#
4g
8r}
{8g
=13
4g
4g
4g
4d
=14
4e
4e
(4e
4d)}
=15
{4g
8g
8f#
4g
4d
=16
4d
4f#
4.g
8r}
==
*-
!!!CNT: Folksongs of Maritime Canada
!!!MRD: 1928///-1932///
!!!OCL: Helen Creighton
!!!YOR: Songs and Ballads from Nova Scotia
!!!PPR: J.M. Dent & Sons, Limited
!!!PPP: Toronto, Canada
!!!PDT: 1932///
!!!reprint: Dover Publications, 1992: ISBN 0-486-21703-5
!!!ENC1: Craig Stuart Sapp (music and bibliographic data)                       
!!!ENC2: Marcus Pearce (phrase markings and key designations)                   
!!!ENC3: Darrell Conklin (phrase markings and key designations)   
!!!END: 2002/04/10/
!!!EEV: 2004/06/05
!!!MPN: Mr. Ben Henneberry
!!!PPG: 46
!!!EFL: 23/152
!!!ARE: Canada; Nova Scotia
!!!verses: 4
!!!VTS: 1145753119
